X: 9140
T: Dairy Maid, The
R: jig
M: 6/8
K: Fmajor
(F/A/)|c2d c2A|GFF F2A|c2f dcA|BGG G2 (A/B/)|
c2A GFG|AGA f2e|d2c fcA|GFF F2:|
|:c|f2d dcf|c2A AGA|cfe dcf|AGF G2 (A/B/)|
c2A GFG|AGA f2e|d2c fcA|GFF F2:|

